src/svg-light/size_ver.svg

<svg xmlns="http://www.w3.org/2000/svg" id="svg5327" width="32" height="32" version="1.1">
 <defs id="defs5329">
  <filter id="filter855" style="color-interpolation-filters:sRGB" width="1.096" height="1.096" x="-.05" y="-.05">
   <feGaussianBlur id="feGaussianBlur857" stdDeviation=".48"/>
  </filter>
 </defs>
 <path id="path831" style="opacity:0.3;fill:#000000;fill-opacity:1;stroke:none;stroke-width:0;stroke-linecap:round;stroke-linejoin:round;stroke-miterlimit:4;stroke-dasharray:none;stroke-dashoffset:0;stroke-opacity:1;paint-order:normal;filter:url(#filter855)" d="m 16.179688,4.5081 c -0.368059,-0.048 -0.750297,0.12 -0.951172,0.4551 l -3.097657,5.1699 c -0.367181,0.6128 0.07999,1.3724 0.804688,1.3672 h 6.113281 c 0.725164,-0.01 1.184418,-0.8161 0.826172,-1.4239 L 16.857422,4.9514 C 16.779392,4.8193 16.669291,4.7096 16.535156,4.6311 16.422853,4.5651 16.302374,4.5241 16.179688,4.5081 Z"/>
 <path id="path825" style="opacity:0.3;fill:#000000;fill-opacity:1;stroke:none;stroke-width:0;stroke-linecap:round;stroke-linejoin:round;stroke-miterlimit:4;stroke-dasharray:none;stroke-dashoffset:0;stroke-opacity:1;paint-order:normal;filter:url(#filter855)" d="m 16,13.5003 a 3,3 0 0 0 -3,3 3,3 0 0 0 3,3 3,3 0 0 0 3,-3 3,3 0 0 0 -3,-3 z"/>
 <path id="circle1012" style="opacity:0.3;fill:#000000;fill-opacity:1;stroke:none;stroke-width:0;stroke-linecap:round;stroke-linejoin:round;stroke-miterlimit:4;stroke-dasharray:none;stroke-dashoffset:0;stroke-opacity:1;paint-order:normal;filter:url(#filter855)" d="m 12.949219,21.5003 c -0.725164,0.01 -1.182465,0.816 -0.824219,1.4238 l 3.015625,5.125 c 0.07803,0.1321 0.190084,0.2418 0.324219,0.3203 0.449215,0.2641 1.038806,0.1148 1.30664,-0.332 l 3.097657,-5.1699 c 0.367181,-0.6128 -0.07999,-1.3724 -0.804688,-1.3672 z"/>
 <circle id="path871" style="opacity:1;fill:#2196f3;fill-opacity:1;stroke:none;stroke-width:0;stroke-linecap:round;stroke-linejoin:round;stroke-miterlimit:4;stroke-dasharray:none;stroke-dashoffset:0;stroke-opacity:1;paint-order:normal" cx="16" cy="16" r="3"/>
 <path id="path837" style="fill:none;stroke-width:1;stroke:#000000;stroke-opacity:1;stroke-miterlimit:4;stroke-dasharray:none;stroke-linejoin:round;stroke-linecap:round;opacity:0.25" d="M 16.179688 4.0078125 C 15.811629 3.9596391 15.429391 4.1277906 15.228516 4.4628906 L 12.130859 9.6328125 C 11.763678 10.245613 12.210852 11.0052 12.935547 11 L 19.048828 11 C 19.773992 10.99 20.233246 10.183972 19.875 9.5761719 L 16.857422 4.4511719 C 16.779392 4.3190719 16.669291 4.2093594 16.535156 4.1308594 C 16.422853 4.0648344 16.302374 4.0238703 16.179688 4.0078125 z M 12.949219 21 C 12.224055 21.01 11.766754 21.816028 12.125 22.423828 L 15.140625 27.548828 C 15.218655 27.680928 15.330709 27.790641 15.464844 27.869141 C 15.914059 28.133241 16.50365 27.983909 16.771484 27.537109 L 19.869141 22.367188 C 20.236322 21.754387 19.789148 20.9948 19.064453 21 L 12.949219 21 z"/>
 <path id="path884" style="fill:#e4e4e4;stroke-width:0.23388676" d="m 15.464844,27.8697 c 0.449215,0.2641 1.039406,0.1137 1.30724,-0.3331 l 3.096481,-5.1692 c 0.367181,-0.6128 -0.07973,-1.3722 -0.804425,-1.367 L 12.95017,21 c -0.725164,0.01 -1.184373,0.8158 -0.826127,1.4236 l 3.017464,5.1253 c 0.07803,0.1321 0.189202,0.2425 0.323337,0.321 z"/>
 <path id="path8" style="fill:#e4e4e4;stroke-width:0.23388676" d="M 16.534888,4.1303 C 16.085673,3.8662 15.495482,4.0166 15.227648,4.4634 l -3.096481,5.1692 c -0.367181,0.6128 0.07973,1.3722 0.804425,1.367 l 6.11397,4e-4 c 0.725164,-0.01 1.184373,-0.8158 0.826127,-1.4236 L 16.858225,4.4511 C 16.780195,4.319 16.669023,4.2086 16.534888,4.1301 Z"/>
 <path id="path843" style="opacity:0.05;fill:#010101;fill-opacity:1;stroke:none;stroke-width:0;stroke-linecap:round;stroke-linejoin:round;stroke-miterlimit:4;stroke-dasharray:none;stroke-dashoffset:0;stroke-opacity:1;paint-order:normal" d="m 16,13 a 3,3 0 0 0 -3,3 3,3 0 0 0 3,3 3,3 0 0 0 3,-3 3,3 0 0 0 -3,-3 z m 0,1 c 1.116414,0 2,0.8836 2,2 0,1.1164 -0.883586,2 -2,2 -1.116414,0 -2,-0.8836 -2,-2 0,-1.1164 0.883586,-2 2,-2 z"/>
</svg>

<svg xmlns="http://www.w3.org/2000/svg" id="svg5327" width="32" height="32" version="1.1">
 <defs id="defs5329">
  <filter id="filter855" style="color-interpolation-filters:sRGB" width="1.096" height="1.096" x="-.05" y="-.05">
   <feGaussianBlur id="feGaussianBlur857" stdDeviation=".48"/>
  </filter>
 </defs>
 <g id="layer1" transform="translate(0,-1020.3622)">
  <path id="path831" style="opacity:0.3;fill:#000000;fill-opacity:1;stroke:none;stroke-width:0;stroke-linecap:round;stroke-linejoin:round;stroke-miterlimit:4;stroke-dasharray:none;stroke-dashoffset:0;stroke-opacity:1;paint-order:normal;filter:url(#filter855)" d="m 16.179688,1024.8703 c -0.368059,-0.048 -0.750297,0.12 -0.951172,0.4551 l -3.097657,5.1699 c -0.367181,0.6128 0.07999,1.3724 0.804688,1.3672 h 6.113281 c 0.725164,-0.01 1.184418,-0.8161 0.826172,-1.4239 l -3.017578,-5.125 c -0.07803,-0.1321 -0.188131,-0.2418 -0.322266,-0.3203 -0.112303,-0.066 -0.232782,-0.107 -0.355468,-0.123 z"/>
  <path id="path825" style="opacity:0.3;fill:#000000;fill-opacity:1;stroke:none;stroke-width:0;stroke-linecap:round;stroke-linejoin:round;stroke-miterlimit:4;stroke-dasharray:none;stroke-dashoffset:0;stroke-opacity:1;paint-order:normal;filter:url(#filter855)" d="m 16,1033.8625 a 3,3 0 0 0 -3,3 3,3 0 0 0 3,3 3,3 0 0 0 3,-3 3,3 0 0 0 -3,-3 z"/>
  <path id="circle1012" style="opacity:0.3;fill:#000000;fill-opacity:1;stroke:none;stroke-width:0;stroke-linecap:round;stroke-linejoin:round;stroke-miterlimit:4;stroke-dasharray:none;stroke-dashoffset:0;stroke-opacity:1;paint-order:normal;filter:url(#filter855)" d="m 12.949219,1041.8625 c -0.725164,0.01 -1.182465,0.816 -0.824219,1.4238 l 3.015625,5.125 c 0.07803,0.1321 0.190084,0.2418 0.324219,0.3203 0.449215,0.2641 1.038806,0.1148 1.30664,-0.332 l 3.097657,-5.1699 c 0.367181,-0.6128 -0.07999,-1.3724 -0.804688,-1.3672 z"/>
  <circle id="path871" style="opacity:1;fill:#2196f3;fill-opacity:1;stroke:none;stroke-width:0;stroke-linecap:round;stroke-linejoin:round;stroke-miterlimit:4;stroke-dasharray:none;stroke-dashoffset:0;stroke-opacity:1;paint-order:normal" cx="16" cy="1036.362" r="3"/>
  <path id="path884" style="fill:#e4e4e4;stroke-width:0.23388676" d="m 15.464844,1048.2319 c 0.449215,0.2641 1.039406,0.1137 1.30724,-0.3331 l 3.096481,-5.1692 c 0.367181,-0.6128 -0.07973,-1.3722 -0.804425,-1.367 l -6.11397,-4e-4 c -0.725164,0.01 -1.184373,0.8158 -0.826127,1.4236 l 3.017464,5.1253 c 0.07803,0.1321 0.189202,0.2425 0.323337,0.321 z"/>
  <path id="path8" style="fill:#e4e4e4;stroke-width:0.23388676" d="m 16.534888,1024.4925 c -0.449215,-0.2641 -1.039406,-0.1137 -1.30724,0.3331 l -3.096481,5.1692 c -0.367181,0.6128 0.07973,1.3722 0.804425,1.367 l 6.11397,4e-4 c 0.725164,-0.01 1.184373,-0.8158 0.826127,-1.4236 l -3.017464,-5.1253 c -0.07803,-0.1321 -0.189202,-0.2425 -0.323337,-0.321 z"/>
  <path id="path851" style="opacity:0.05;fill:#010101;fill-opacity:1;stroke:none;stroke-width:0;stroke-linecap:round;stroke-linejoin:round;stroke-miterlimit:4;stroke-dasharray:none;stroke-dashoffset:0;stroke-opacity:1;paint-order:normal" transform="translate(0,1020.3622)" d="M 16.179688 4.0078125 C 15.811629 3.9596391 15.429391 4.1277906 15.228516 4.4628906 L 12.130859 9.6328125 C 11.763678 10.245613 12.210852 11.0052 12.935547 11 L 19.048828 11 C 19.773992 10.99 20.233246 10.183972 19.875 9.5761719 L 16.857422 4.4511719 C 16.779392 4.3190719 16.669291 4.2093594 16.535156 4.1308594 C 16.422853 4.0648344 16.302374 4.0238703 16.179688 4.0078125 z M 16.044922 5.0429688 L 18.964844 10 L 13.076172 10 L 16.044922 5.0429688 z"/>
  <path id="path843" style="opacity:0.05;fill:#010101;fill-opacity:1;stroke:none;stroke-width:0;stroke-linecap:round;stroke-linejoin:round;stroke-miterlimit:4;stroke-dasharray:none;stroke-dashoffset:0;stroke-opacity:1;paint-order:normal" transform="translate(0,1020.3622)" d="M 16 13 A 3 3 0 0 0 13 16 A 3 3 0 0 0 16 19 A 3 3 0 0 0 19 16 A 3 3 0 0 0 16 13 z M 16 14 C 17.116414 14 18 14.8836 18 16 C 18 17.1164 17.116414 18 16 18 C 14.883586 18 14 17.1164 14 16 C 14 14.8836 14.883586 14 16 14 z"/>
  <path id="path835" style="opacity:0.05;fill:#010101;fill-opacity:1;stroke:none;stroke-width:0;stroke-linecap:round;stroke-linejoin:round;stroke-miterlimit:4;stroke-dasharray:none;stroke-dashoffset:0;stroke-opacity:1;paint-order:normal" transform="translate(0,1020.3622)" d="M 12.949219 21 C 12.224055 21.01 11.766754 21.816028 12.125 22.423828 L 15.140625 27.548828 C 15.218655 27.680928 15.330709 27.790641 15.464844 27.869141 C 15.914059 28.133241 16.50365 27.983909 16.771484 27.537109 L 19.869141 22.367188 C 20.236322 21.754387 19.789148 20.9948 19.064453 21 L 12.949219 21 z M 13.035156 22 L 18.923828 22 L 15.953125 26.958984 L 13.035156 22 z"/>
 </g>
</svg>
